X:1
T:Title
%%score { ( 1 3 ) | ( 2 4 ) }
L:1/8
M:4/4
K:Bb
V:1 treble nm="Grand Piano"
V:3 treble 
V:2 bass 
V:4 bass 
V:1
 z4 z2[Q:1/4=90] [B,D][CE] | [DF][Fd][Fd][Ec] [Ec][DB][EA][FB] | cBAG F2 D[CE] | %3
 [DF][DB][DB][EB] [FB][FG][EA][DB] | c6 dc | [Ec][DB][DB][EB] [DB][DF][EB][FA] | %6
[M:9/8] [FA]G^F G [Ge]2- [Ge][Gd][Gc] |[M:4/4] BBBB BAGA |[M:3/4] [DB]6 |[M:1/4] [Fd][Ec] | %10
[M:4/4] [Ec][DB][DB][DB] [DB][B,DF][B,EB][B,FA] | [B,FA][B,EG][A,E^F][B,EG] [EGc]2 [EGc][CGB] | %12
 BAAG Fec_d | d6 z2 | [Ec][DB][DB][DB] [DB][DF][EB][FA] |[M:9/8] [FA]G^F G [Ge]2- [Ge][Gd][Gc] | %16
[M:4/4] BBBB BAGA |[M:3/4] B6 |] %18
V:2
 z4 z2 [B,,F,][B,,F,] | [B,,B,][B,,B,][B,,B,][B,,F,] [B,,F,][B,,F,][C,F,][D,F,] | %2
 [E,G,E][E,G,E][E,B,E][G,B,E] [B,D]2 [B,,F,B,][B,,F,] | %3
 [B,,B,][B,,F,][B,,F,][C,F,] [D,F,][_D,B,][C,F,][B,,F,] | [F,A,F]6 [F,A,F][F,A,E] | %5
 [B,,B,][B,,B,][B,,B,][B,,G,] [B,,F,][B,,B,][C,B,][D,B,] | %6
[M:9/8] [E,B,][E,B,E][E,B,E] [E,B,E] [C,C]2- [C,C][D,=B,][E,C] | %7
[M:4/4] [F,DF][F,DF][^F,_D=E][F,DE] [=F,C_E][F,CE][F,B,E][F,CE] |[M:3/4] [B,,B,]6 | %9
[M:1/4] [F,B,][F,A,] |[M:4/4] [B,,B,][B,,F,][B,,F,][B,,F,] [B,,F,]B,,C,D, | E,E,E,E, C,2 E,E, | %12
 [F,CE][F,CE][F,CE][F,B,E] [F,A,E][K:treble][F,A,G][F,A,F][F,A,F] | .F2 z2 z4[K:bass] | %14
 [B,,B,][B,,F,][B,,F,][B,,F,] [B,,F,][B,,B,][C,B,][D,B,] | %15
[M:9/8] [E,B,][E,B,E][E,B,E] [E,B,E] [C,C]2- [C,C][D,=B,][E,C] | %16
[M:4/4] [F,DF][F,DF][G,_D=E][G,DE] [F,C_E][F,CE][F,CE][F,CE] |[M:3/4] z G, F,=E, F,2 |] %18
V:3
 x8 | x8 | x8 | x8 | x8 | x8 |[M:9/8] x9 |[M:4/4] x8 |[M:3/4] x6 |[M:1/4] x2 |[M:4/4] x8 | x8 | %12
 x8 | z GF=E GFdc | x8 |[M:9/8] x9 |[M:4/4] x8 |[M:3/4] [B,D]E D_D =D2 |] %18
V:4
 x8 | x8 | x8 | x8 | x8 | x8 |[M:9/8] x9 |[M:4/4] x8 |[M:3/4] x6 |[M:1/4] x2 |[M:4/4] x8 | x8 | %12
 x5[K:treble] x3 | B,6[K:bass] [F,A,F][F,A,E] | x8 |[M:9/8] x9 |[M:4/4] x8 |[M:3/4] B,,6 |] %18

